;PYCAM-META-DATA: Filename: /home/user/Downloads/Part2.stl
;PYCAM-META-DATA: Timestamp: 2015-07-15 18:19:44.186553
;PYCAM-META-DATA: Version: 0.5.1
;Estimated machine time: 0 minutes
G40 (disable tool radius compensation)
G49 (disable tool length compensation)
G80 (cancel modal motion)
G54 (select coordinate system 1)
G90 (disable incremental moves)
G21 (metric)
G61 (exact path mode)
F200.00000
S1000.00000
;PYCAM_TOOLPATH_SETTINGS: START
;[Bounds]
;maxz = 0.0
;maxx = 18.5
;maxy = 18.5
;minx = 1.5
;miny = 1.5
;minz = -1.0
;
;[Tool]
;torus_radius = 0.25
;speed = 1000.0
;shape = SphericalCutter
;tool_radius = 1.5
;feedrate = 200.0
;
;[Process]
;engrave_offset = 0.0
;step_down = 5.0
;generator = PushCutter
;postprocessor = SimpleCutter
;milling_style = ignore
;material_allowance = 0.5
;pocketing_type = none
;path_direction = y
;
;PYCAM_TOOLPATH_SETTINGS: END
T3 M6
G0 Z2.0000
M3 (start spindle)
G04 P3 (wait for 3 seconds)
 X7.1667 Y6.3229
G1 Z0.0000
 Y13.6771
 X10.0000
 Y6.3229
 X12.8333
 Y13.6771
G0 Z2.0000
 Y13.0635
G1 Z-1.0000
 Y6.9365
 X10.0000
 Y13.0635
 X7.1667
 Y6.9365
G0 Z2.0000
M5 (stop spindle)
G04 P3 (wait for 3 seconds)
G0 Z2.0000
M2 (end program)
